X: 41684
T: Ushag Veg Ruy
R: waltz
M: 3/4
K: Bminor
F2 B2 B2|B4 B2|f4 f2|c5|d4 d2|B5|c4 c2|A5|
F2 B2 B2|B4 B2|f4 f2|c4 c2|d3d d2|c2 B2 A2|B5||

